!!!COM: Music21
!!!OTL: polka_Carnaval-De-Lanz
!!!OMV: polka_Carnaval-De-Lanz
**kern
*clefG2
*k[f#]
*G:
*M2/4
=1
32bLLL
32ccJJJ
=||
16ddLL
32ddL
32ee
32dd
32cc
32b
32aJJJ
4ryy
=
16.gLL
32bK
16b
16bJJ
4ryy
=
16.aLL
32bK
16cc
16ddJJ
4ryy
=
8eeL
16ddL
32bL
32ccJJJ
4ryy
=
16ddLL
32ddL
32ee
32dd
32cc
32b
32aJJJ
4ryy
=
16.gLL
32bK
16b
16bJJ
4ryy
!!linebreak:original
=
16.aLL
32bK
16cc
16f#JJ
4ryy
=
[8gL
16gL]
32bL
32ccJJJ
4ryy
=||
16ddLL
32ddL
32ee
32dd
32cc
32b
32aJJJ
4ryy
=
16.gLL
32bK
16b
16bJJ
4ryy
=
16.aLL
32bK
16cc
16ddJJ
4ryy
=
8eeL
16ddL
32bL
32ccJJJ
4ryy
=
16ddLL
32ddL
32ee
32dd
32cc
32b
32aJJJ
4ryy
!!linebreak:original
=
16.gLL
32bK
16b
16bJJ
4ryy
=
16.aLL
32bK
16cc
16f#JJ
4ryy
=
8gL
8f#J
4ryy
=||
16.gLL
32bK
16dd
16ggJJ
4ryy
=
16ggLL
16ff#J
8aaJ
4ryy
=
16.aLL
32bK
16cc
16ddJJ
4ryy
=
16eeLL
16ddJ
8ggJ
4ryy
=
16.gLL
32bK
16dd
16ggJJ
4ryy
!!linebreak:original
=
16ggLL
16ff#
16.aa
32ggJJk
4ryy
=
16ff#LL
16dd
16ee
16ff#JJ
4ryy
=
[8ggL
8ggJ]
4ryy
=||
16.gLL
32bK
16dd
16ggJJ
4ryy
=
16ggLL
16ff#J
8aaJ
4ryy
=
16.aLL
32bK
16cc
16ddJJ
4ryy
=
16eeLL
16ddJ
8ggJ
4ryy
=
16.gLL
32bK
16dd
16ggJJ
4ryy
!!linebreak:original
=
16ggLL
16ff#
16.aa
32ggJJk
4ryy
=
16ff#LL
16dd
16ee
16ff#JJ
4ryy
=
[8ggL
8ggJ]
4ryy
=||
16.ddLL
32ddK
16dd
16ddJJ
4ryy
=
16.eeLL
32ddK
16cc
16bJJ
4ryy
=
16.ccLL
32ccK
16cc
16eeJJ
4ryy
=
16ddLL
16bJ
8gJ
4ryy
=
16.ddLL
32ddK
16dd
16ddJJ
4ryy
!!linebreak:original
=
16.eeLL
32ddK
16cc
16bJJ
4ryy
=
16.ccLL
32ccK
16ee
16ddJJ
4ryy
=
[8gL
16gJk]
16r
4ryy
=||
16.ddLL
32ddK
16dd
16ddJJ
4ryy
=
16.eeLL
32ddK
16cc
16bJJ
4ryy
=
16.ccLL
32ccK
16cc
16eeJJ
4ryy
=
16ddLL
16bJ
8gJ
4ryy
!!linebreak:original
=
16.ddLL
32ddK
16dd
16ddJJ
4ryy
=
16.eeLL
32ddK
16cc
16bJJ
4ryy
=
16.ccLL
32ccK
16ee
16ddJJ
4ryy
=
8g
16r
16gg
4ryy
=||
16eeLL
16cc
16cc
32ddL
32eeJJJ
4ryy
=
16ffnLL
16dd
16ddJJ
16r
4ryy
=
32ddLLL
32cc
32dd
32eeJ
16ffn
16ddJJ
4ryy
!!linebreak:original
=
16bLL
16g
16g
16ggJJ
4ryy
=
16eeLL
16cc
32ccL
32dd
32ee
32ffnJJJ
4ryy
=
8ggL
16eeL
32ddL
32eeJJJ
4ryy
=
16ffnLL
16dd
16cc
16ddJJ
4ryy
=
8.ccL
16ggJk
4ryy
=||
16eeLL
16cc
16cc
32ddL
32eeJJJ
4ryy
=
16ffnLL
16dd
16ddJJ
16r
4ryy
!!linebreak:original
=
32ddLLL
32cc
32dd
32eeJ
16ffn
16ddJJ
4ryy
=
16bLL
16g
16g
16ggJJ
4ryy
=
16eeLL
16cc
32ccL
32dd
32ee
32ffnJJJ
4ryy
=
8ggL
16eeL
32ddL
32eeJJJ
4ryy
=
16ffnLL
16dd
16cc
16ddJJ
4ryy
=
8.ccL
32bLL
32ccJJJ
4ryy
=||
*-
